X:77
T:Glass of Beer, The
R:reel
D:Oisin: Over the Moor to Maggie.
D:Frankie Gavin: Up and Away
Z:id:hn-reel-77
M:C|
K:Bm
fB~B2 fBaB|fB~B2 e2de|fB~B2 ~f3e|1 dfaf e2de:|2 dfaf e2fe||
|:~d3e ~f3e|defd eA~A2|~d3e fgfe|1 dfaf e2fe:|2 dfaf e2de||
<end>
<start>
